images/signed.svg

<svg height="81" viewBox="0 0 122 81" width="122" xmlns="http://www.w3.org/2000/svg"><g fill="none" fill-rule="evenodd"><g fill-rule="nonzero" stroke="#2470c8" stroke-width="2" transform="translate(47 8)"><path d="m27.2889792 26.0005195-23.27038763 23.2487202 11.59128133 11.459799 23.2726958-23.1673894z" fill="#b9d9ff"/><path d="m27.3968048 25.8527393 11.6189528 11.5601506 20.1892347-20.0870595c.3502757-.348503.5089471-.7168624.5089471-1.1567632 0-.3144543-.0636206-.5676488-.2135095-.8161993l-.405195-.6719073 4.3958181-4.3735714c.678596-.67516177.678596-1.63836477 0-2.31352654l-6.5183839-6.48539507c-.67616-.67273804-1.7185844-.67273804-2.3396817 0l-4.4556137 4.43306438-2.5804622-2.56740279c-2.4653736-2.45289667-6.2909731-2.45289667-8.6813929.00189848l-16.6065716 16.43369174c-.6733542.6699465-.6733542 1.6981321 0 2.3135266.3245081.3228657.7753274.5084676 1.1698409.5084676s.8453328-.1856019 1.1698408-.5084676l16.5191919-16.43559029c1.0977223-1.0921668 2.767782-1.0921668 4.0001163 0l1.2482618 1.24194451zm29.2989528-13.4258123-4.1858957-4.16471136 3.2929664-3.27630111 4.1858957 4.1647114z" fill="#b9d9ff"/><path d="m3.3389609 51.1087976-2.27913589 11.0719238c-.17391882.6777784.04675302 1.5162584.51532971 2.064085.36023038.4211557.72170683.6022754 1.14060533.6022754.10101502 0 .15052213-.0012885.19090007-.005397l.0458379-.0267952 11.64002038-3.3514414z" fill="#2470c8"/></g><path d="m34.9976058 8c-14.3555051 0-25.9976058 11.6405046-25.9976058 26.0007981 0 11.487277 7.449093 21.2315909 17.780779 24.6696338 1.300838.239418 1.7748857-.5634305 1.7748857-1.2529544 0-.6161024-.0223457-2.2521256-.0351147-4.4212529-7.2320206 1.5705822-8.7579115-3.4859266-8.7579115-3.4859266-1.1827251-3.0038982-2.8873814-3.8035544-2.8873814-3.8035544-2.3606618-1.6120814.1787654-1.580159.1787654-1.580159 2.6096566.1835538 3.9823199 2.6798858 3.9823199 2.6798858 2.3191627 3.9727432 6.0860064 2.8251328 7.5672059 2.1595507.2362258-1.6791185.9081924-2.8251328 1.6503883-3.4747537-5.7731668-.6560054-11.8432119-2.8873815-11.8432119-12.8503638 0-2.8379017 1.0135363-5.1602566 2.6766936-6.9766413-.2681482-.6576016-1.1603794-3.3023727.2553792-6.8808742 0 0 2.1818963-.6991007 7.1490224 2.6655207 2.0733601-.5777955 4.2983517-.8650971 6.5089782-.87627 2.2090303.0111729 4.4324258.2984745 6.5089781.87627 4.9639339-3.3646214 7.1426379-2.6655207 7.1426379-2.6655207 1.4189509 3.5785015.5267197 6.2232726.2601676 6.8808742 1.6663495 1.8163847 2.6719052 4.1387396 2.6719052 6.9766413 0 9.9885203-6.0796218 12.1863778-11.8703459 12.8296142.9321342.8028485 1.7637128 2.389392 1.7637128 4.8154947 0 3.4747536-.0319224 6.2791368-.0319224 7.131465 0 .6959084.4692594 1.5051414 1.7876547 1.2513583 10.3237054-3.4460236 17.7664139-13.1839529 17.7664139-24.6680377 0-14.3602935-11.6421007-26.0007981-26.0023942-26.0007981" fill="#2470c8"/></g></svg>

<?xml version="1.0" encoding="UTF-8" standalone="no"?>
<svg width="122px" height="81px" viewBox="0 0 122 81" version="1.1" xmlns="http://www.w3.org/2000/svg" xmlns:xlink="http://www.w3.org/1999/xlink">
    <!-- Generator: Sketch 50.2 (55047) - http://www.bohemiancoding.com/sketch -->
    <title>signed</title>
    <desc>Created with Sketch.</desc>
    <defs></defs>
    <g id="signed" stroke="none" stroke-width="1" fill="none" fill-rule="evenodd">
        <g id="Group-2" transform="translate(47.000000, 8.000000)" fill-rule="nonzero" stroke="#2470C8" stroke-width="2">
            <g id="Group">
                <path d="M27.2889792,26.0005195 L4.01859157,49.2492397 L15.6098729,60.7090387 L38.8825687,37.5416493 L27.2889792,26.0005195 Z" id="Shape" fill="#B9D9FF"></path>
                <path d="M27.3968048,25.8527393 L39.0157576,37.4128899 L59.2049923,17.3258304 C59.555268,16.9773274 59.7139394,16.608968 59.7139394,16.1690672 C59.7139394,15.8546129 59.6503188,15.6014184 59.5004299,15.3528679 L59.0952349,14.6809606 L63.491053,10.3073892 C64.169649,9.63222743 64.169649,8.66902443 63.491053,7.99386266 L56.9726691,1.50846759 C56.2965091,0.835729547 55.2540847,0.835729547 54.6329874,1.50846759 L50.1773737,5.94153197 L47.5969115,3.37412918 C45.1315379,0.921232509 41.3059384,0.921232509 38.9155186,3.37602766 L22.308947,19.8097194 C21.6355928,20.4796659 21.6355928,21.5078515 22.308947,22.123246 C22.6334551,22.4461117 23.0842744,22.6317136 23.4787879,22.6317136 C23.8733014,22.6317136 24.3241207,22.4461117 24.6486287,22.123246 L41.1678206,5.68765571 C42.2655429,4.59548891 43.9356026,4.59548891 45.1679369,5.68765571 L46.4161987,6.92960022 L27.3968048,25.8527393 Z M56.6957576,12.426927 L52.5098619,8.26221564 L55.8028283,4.98591453 L59.988724,9.15062593 L56.6957576,12.426927 Z" id="Shape" fill="#B9D9FF"></path>
                <path d="M3.3389609,51.1087976 L1.05982501,62.1807214 C0.885906194,62.8584998 1.10657803,63.6969798 1.57515472,64.2448064 C1.9353851,64.6659621 2.29686155,64.8470818 2.71576005,64.8470818 C2.81677507,64.8470818 2.86628218,64.8457933 2.90666012,64.8416848 L2.95249802,64.8148896 L14.5925184,61.4634482 L3.3389609,51.1087976 Z" id="Shape" fill="#2470C8"></path>
            </g>
        </g>
        <path d="M34.9976058,8 C20.6421007,8 9,19.6405046 9,34.0007981 C9,45.4880751 16.449093,55.232389 26.780779,58.6704319 C28.081617,58.9098499 28.5556647,58.1070014 28.5556647,57.4174775 C28.5556647,56.8013751 28.533319,55.1653519 28.52055,52.9962246 C21.2885294,54.5668068 19.7626385,49.510298 19.7626385,49.510298 C18.5799134,46.5063998 16.8752571,45.7067436 16.8752571,45.7067436 C14.5145953,44.0946622 17.0540225,44.1265846 17.0540225,44.1265846 C19.6636791,44.3101384 21.0363424,46.8064704 21.0363424,46.8064704 C23.3555051,50.7792136 27.1223488,49.6316032 28.6035483,48.9660211 C28.8397741,47.2869026 29.5117407,46.1408883 30.2539366,45.4912674 C24.4807698,44.835262 18.4107247,42.6038859 18.4107247,32.6409036 C18.4107247,29.8030019 19.424261,27.480647 21.0874183,25.6642623 C20.8192701,25.0066607 19.9270389,22.3618896 21.3427975,18.7833881 C21.3427975,18.7833881 23.5246938,18.0842874 28.4918199,21.4489088 C30.56518,20.8711133 32.7901716,20.5838117 35.0007981,20.5726388 C37.2098284,20.5838117 39.4332239,20.8711133 41.5097762,21.4489088 C46.4737101,18.0842874 48.6524141,18.7833881 48.6524141,18.7833881 C50.071365,22.3618896 49.1791338,25.0066607 48.9125817,25.6642623 C50.5789312,27.480647 51.5844869,29.8030019 51.5844869,32.6409036 C51.5844869,42.6294239 45.5048651,44.8272814 39.714141,45.4705178 C40.6462752,46.2733663 41.4778538,47.8599098 41.4778538,50.2860125 C41.4778538,53.7607661 41.4459314,56.5651493 41.4459314,57.4174775 C41.4459314,58.1133859 41.9151908,58.9226189 43.2335861,58.6688358 C53.5572915,55.2228122 61,45.4848829 61,34.0007981 C61,19.6405046 49.3578993,8 34.9976058,8" id="Fill-4" fill="#2470C8"></path>
    </g>
</svg>
